!!!COM: Bach, Johann Sebastian
!!!CDT: 1685/3//-1750/7/28/
!!!OTL@@DE: Christus ist erstanden, hat ueberwunden
!!!OTL@EN:  Christ is risen, has conquered
!!!AGN: 4-Part Chorale
!!!SCT: BH 200
!!!SCT: BWV 284
**harm	**root	**kern	**kern	**kern	**kern
*	*Iorgan	*Iorgan	*Iorgan	*Iorgan	*Iorgan
!	!	!bass	!tenor	!alto	!soprno
*	*	*clefF4	*clefF4	*clefG2	*clefG2
*M4/4	*M4/4	*M4/4	*M4/4	*M4/4	*M4/4
*met(c)	*met(c)	*met(c)	*met(c)	*met(c)	*met(c)
*MM60	*MM60	*MM60	*MM60	*MM60	*MM60
*k[b-e-a-d-]	*k[b-e-a-d-]	*k[b-e-a-d-]	*k[b-e-a-d-]	*k[b-e-a-d-]	*k[b-e-a-d-]
*A-:	*A-:	*A-:	*A-:	*A-:	*A-:
=1-	=1-	=1-	=1-	=1-	=1-
I	4CC	4A-	4c	4e-	4a-
Vb	4GG	4G	4B-	[4e-	4e-
vii/V	4FF#	4F	4A-	8e-]	4f
.	.	.	.	8d	.
V	4GG	8E-	4B-	4e-	4g
.	.	8D-	.	.	.
=2	=2	=2	=2	=2	=2
Ib	4CC	4C	8A-	4.e-	2a-
.	.	.	8G-	.	.
IV	4FF	4D-	4F	.	.
.	.	.	.	[8d-	.
I;	4CC;	4AA-;	4E-;	8d-]	4a-;
.	.	.	.	8c;	.
V/IV	4CC	8A-	4A-	[4c	4e-
.	.	8G-	.	.	.
=3	=3	=3	=3	=3	=3
vi	8AA	4F	4A-	8c]	4a-
viiob/V	8FF#	.	.	8d	.
v	4GG	4E-	4B-	4e-	4g-
iio7b/v	4AA	4AA-	4c-	4e-	2f
V/V	4DD	4BB-	8B-	4d	.
.	.	.	8A-	.	.
=4	=4	=4	=4	=4	=4
v;	2GG;	2EE-;	2G-;	2B-;	2e-;
v	4GG	4E-	4G-	8B-	4e-
.	.	.	.	4c-	.
viioD7/v	8FF#	4D	4A-	.	4f
V7b/v	8DD	.	.	[8B-	.
=5	=5	=5	=5	=5	=5
v	4GG	4E-	8G-	8B-]	4g-
.	.	.	8E-	8g-	.
iv/v	4CC	4AA-	4c-	8f	4a-
.	.	.	.	8e-	.
Vc	4GG	4BB-	[4B-	8d	4g-
.	.	.	.	4e-	.
V/v	4DD	4BBB-	8.B-]	.	4f
.	.	.	.	8d	.
.	.	.	16A-	.	.
!!linebreak: 3
=6	=6	=6	=6	=6	=6
v;	2GG;	2EE-;	2G-;	2B-;	2e-;
I	4CC	8AA-	[4A-	8c	4e-
.	.	8BB-	.	8d-	.
Ib	4CC	8C	8A-]	4e-	4a-
.	.	8D-	8B-	.	.
=7	=7	=7	=7	=7	=7
Ic	4CC	4E-	8c	4e-	4a-
.	.	.	16B-	.	.
.	.	.	16A-	.	.
V	4GG	4EE-	8B-	4e-	4g
.	.	.	[8d-	.	.
I;	2CC;	2AA-;	8d-]	2e-;	2a-;
.	.	.	16c	.	.
.	.	.	16B-	.	.
.	.	.	4c;	.	.
=8	=8	=8	=8	=8	=8
IV	4FF	8D-	4d-	4f	4a-
.	.	8E-	.	.	.
IV	4FF	8D-	4d-	8f	4a-
.	.	8C	.	8e-	.
ii	4DD	8BB-	8d-	8d-	4b-
.	.	8C	8c	8e-	.
iib	4DD	8D-	8B-	[4f	4b-
.	.	8E-	8c	.	.
=9	=9	=9	=9	=9	=9
IVb	4FF	8F	[4d-	4f]	4a-
.	.	8D-	.	.	.
ii7	8DD	8E-	8d-]	8g-	4g-
V7/IV	8CC	8AA-	8c	8e-	.
IV;	2FF;	2D-;	2A-;	2d-;	2f;
=10	=10	=10	=10	=10	=10
V/IV	4CC	8A-	4A-	4c	4e-
.	.	8G-	.	.	.
vi	8AA	4F	4A-	8c	4f
viiob/v	8FF#	.	.	8d	.
v	4GG	8E-	4B-	[4e-	4g-
.	.	8GG-	.	.	.
iio7b/v	8AA	8AA-	8c-	8e-]	4f
V/v	8DD	8BB-	16B-	8d	.
.	.	.	16A-	.	.
!!linebreak: 3
=11	=11	=11	=11	=11	=11
-III;	2EE-;	2C-;	2G-;	2e-;	2e-;
v	4GG	4E-	8G-	8B-	4g-
.	.	.	8B-	[8g-	.
V/-VII	4FF	4D-	4d-	8g-]	4a-
.	.	.	.	8f	.
=12	=12	=12	=12	=12	=12
-VII	4BB-	8G-	4d-	2g-	4b-
.	.	8F	.	.	.
IVb/-VII	8EE-	8E-	8c-	.	8cc-
Ic/-VII	8BB-	8D-	8d-	.	8b-
ii7b/-VII	8CC	8C-	8e-	4g-	2a-
ii7/-VII	8CC	8AA-	8c-	.	.
V/-VII	4FF	4D-	8A-	4f	.
.	.	.	8d-	.	.
=13	=13	=13	=13	=13	=13
I/-VII;	2BB-;	2GG-;	2d-;	2g-;	2b-;
I/-VII	4BB-	4G-y	4d-	4.g-	4b-
V/-VII	4FF	4D-	4d-	.	4a-
.	.	.	.	8f	.
=14	=14	=14	=14	=14	=14
I/-VII	4BB-	8G-	4d-	4g-	4b-
.	.	8F	.	.	.
iio7d/v	8AA	8E-	8c-	4f	4a-
V7b/v	8DD	8D	8B-	.	.
v	4GG	8E-	4B-	4e-	4g-
.	.	8F	.	.	.
V7d/IV	4CC	8G-	4A-	4c	4e-
.	.	8A-	.	.	.
=15	=15	=15	=15	=15	=15
IV	4FF	4D-	4A-	8d-	4f
.	.	.	.	8c	.
V7	4GG	4E-	4E-	8B-	4g
.	.	.	.	8d-	.
I;	2CC;	2AA-;	2E-;	2c;	2a-;
==	==	==	==	==	==
*-	*-	*-	*-	*-	*-
!!!YOR1: Ludwig Erk, Peters Editions of 1850, 1865; rev. in light of Friedrich
!!!YOR2: Smend, Peters Edition of 1932 & Albert Riemenschneider, 1941.
!!!RDT: 1987 September
!!!YER: 1995 March 1
!!chor2scor: -l 3 -s 0.6 -o %b.pmx
!!!YEC: Copyright 1994, David Huron
!!!YEC: Changes/Additions 2001 by Craig Stuart Sapp
!!!YEN: United States of America
!!!SMA: J.S. Bach Chorale Harmonizations, edited by Ludwig Erk, C.F. Peters
!!!PDT: 1850, 1865
